X:1
T:Solitary Man
T:Solitary Man
T:Neil Diamond
C:Neil Diamond
Z:All Rights Reserved
L:1/4
M:4/4
K:C
V:1 treble nm="Electric Piano"
%%MIDI program 4
V:1
"Dm" z A A/A/ A |"Gm" A2 G F |"F" G2 F E |"Dm" D D3 |"F" z2 F E |"Gm" D4 |"F" z2 F E |"Gm" D4 | %8
w: Mel- in- da was|mine till the|time that I|found her|hold- ing|Jim|lov- ing|him|
w: I've had it to|here be- in|where loves a|small word|part time|thing|pa- per|ring|
"Dm" z A A A/A/ |"Gm" A2 G F |"F" G F F E |"Dm" D D3 |"F" z2 F E |"Dm" D4 |"F" z D F E |"Gm" D4 | %16
w: Then Sue came a-|long loved me|strong * thats what|I thought|Me and|Sue|but that died|too|
w: I know its been|done hav- in|one * girl who'll|love me|right or|wrong|* weak or|strong|
"F" z c c/c/ c |"Bb" d2 c _B |"F" c2 _B A |"C" G G3 | z c c c/c/ |"Bb" d2 _B _B |"F" c c _B A | %23
w: dont know that I|will but un-|til I can|find me|the girl that will|stay * and|wont play games be-|
w: |||||||
"C" G G3 | G G F E |"Dm" D4 |"C" z G G/E/F/E/ |"Dm" D4 |"C" z2 G/F/E/C/ |1"Dm" D4- || D3 z ::2 %31
w: hind me|I'll be what I|am|a sol- i- ta- ry|man|Sol- i- ta- ry|man||
w: ||||||||
"Dm" D3 F ||"C" E3 C |2"Dm" D4 |] %34
w: man mm|* mm||
w: |||

